X: 24579
T: Lust In Translation
R: reel
M: 4/4
K: Fdorian
|:e2 cB cced|cBce gcfg|efcB ccec|fcfg agfe|
edcB cced|cBce gcfg|efcB fcfg|[M:2/4]agfe:|
|:cggc gade|BefB bgfe|cggc gade|BefB gcga|
cggc gade|BefB bgfe|efcB fcfg|[M:2/4]agfe:|
|:cde(g g)ccd|efcc cde(b|b)ccd efag|
cde(g g)ccd|efcc cde(b|b)ccd efag:|

